;Generated with Cura_SteamEngine 15.01
; Default start code
G28 ; Home extruder
G1 Z15 F900
M107 ; Turn off fan
G90 ; Absolute positioning
M82 ; Extruder in absolute mode
M190 S50
; Activate all used extruder
M104 T0 S210
G92 E0 ; Reset extruder position
; Wait for all used extruders to reach temperature
M109 T0 S210
;Layer count: 590
;LAYER:0
M107
G0 F9000 X128.257 Y129.038 Z0.300
;TYPE:SKIRT
G1 F1800 X143.788 Y122.567 E0.83941
G1 X147.716 Y122.567 E1.03538
G1 X173.136 Y122.323 E2.30365
G1 X183.424 Y121.914 E2.81732
G1 X189.752 Y122.923 E3.13702
G1 X196.921 Y127.427 E3.55941
G1 X198.050 Y129.046 E3.65788
G1 X203.100 Y129.823 E3.91279
G1 X203.100 Y178.026 E6.31765
G1 X158.460 Y178.026 E8.54475
G1 X158.460 Y163.987 E9.24516
G1 X147.394 Y163.762 E9.79735
G1 X127.416 Y163.362 E10.79426
G1 X128.257 Y129.038 E12.50721
G0 F9000 X128.650 Y129.308
G1 F1800 X143.868 Y122.967 E13.32971
G1 X147.720 Y122.967 E13.52188
G1 X173.123 Y122.723 E14.78930
G1 X183.400 Y122.315 E15.30243
G1 X189.608 Y123.305 E15.61606
G1 X196.639 Y127.723 E16.03034
G1 X197.819 Y129.415 E16.13326
G1 X202.700 Y130.166 E16.37964
G1 X202.700 Y177.626 E18.74742
G1 X158.860 Y177.626 E20.93461
G1 X158.860 Y163.595 E21.63462
G1 X147.402 Y163.362 E22.20638
G1 X127.826 Y162.970 E23.18323
G1 X128.650 Y129.308 E24.86313
G0 F9000 X129.044 Y129.577
G1 F1800 X143.948 Y123.367 E25.66866
G1 X147.723 Y123.367 E25.85700
G1 X173.142 Y123.123 E27.12521
G1 X183.376 Y122.716 E27.63619
G1 X189.465 Y123.687 E27.94381
G1 X196.357 Y128.018 E28.34991
G1 X197.589 Y129.785 E28.45738
G1 X202.300 Y130.510 E28.69518
G1 X202.300 Y177.226 E31.02585
G1 X159.260 Y177.226 E33.17313
G1 X159.260 Y163.203 E33.87274
G1 X147.410 Y162.962 E34.46406
G1 X128.235 Y162.579 E35.42089
G1 X129.044 Y129.577 E37.06786
G0 F9000 X129.437 Y129.846
G1 F1800 X144.028 Y123.767 E37.85646
G1 X147.727 Y123.767 E38.04101
G1 X173.160 Y123.523 E39.30992
G1 X183.352 Y123.117 E39.81881
G1 X189.321 Y124.069 E40.12037
G1 X196.076 Y128.314 E40.51839
G1 X197.359 Y130.154 E40.63030
G1 X201.900 Y130.853 E40.85952
G1 X201.900 Y176.826 E43.15313
G1 X159.660 Y176.826 E45.26049
G1 X159.660 Y162.811 E45.95970
G1 X147.418 Y162.562 E46.57058
G1 X128.645 Y162.187 E47.50736
G1 X129.437 Y129.846 E49.12134
G0 F9000 X129.831 Y130.116
G1 F1800 X144.108 Y124.167 E49.89298
G1 X147.731 Y124.167 E50.07374
G1 X173.148 Y123.923 E51.34185
G1 X183.329 Y123.519 E51.85019
G1 X189.177 Y124.451 E52.14563
G1 X195.794 Y128.609 E52.53552
G1 X197.129 Y130.524 E52.65198
G1 X201.500 Y131.196 E52.87261
G1 X201.500 Y176.426 E55.12915
G1 X160.060 Y176.426 E57.19660
G1 X160.060 Y162.419 E57.89541
G1 X147.426 Y162.162 E58.52585
G1 X129.055 Y161.795 E59.44257
G1 X129.831 Y130.116 E61.02351
G0 F9000 X130.224 Y130.385
G1 F1800 X144.188 Y124.567 E61.77823
G1 X147.735 Y124.567 E61.95519
G1 X173.168 Y124.323 E63.22411
G1 X183.305 Y123.920 E63.73024
G1 X189.034 Y124.834 E64.01968
G1 X195.512 Y128.904 E64.40136
G1 X196.899 Y130.893 E64.52234
G1 X201.100 Y131.539 E64.73439
G1 X201.100 Y176.026 E66.95385
G1 X160.460 Y176.026 E68.98139
G1 X160.460 Y162.027 E69.67981
G1 X147.434 Y161.762 E70.32981
G1 X129.464 Y161.403 E71.22652
G1 X130.224 Y130.385 E72.77447
G0 F9000 X130.618 Y130.655
G1 F1800 X144.268 Y124.967 E73.51223
G1 X147.739 Y124.967 E73.68540
G1 X173.187 Y124.722 E74.95507
G1 X183.281 Y124.321 E75.45906
G1 X188.890 Y125.216 E75.74243
G1 X195.231 Y129.200 E76.11604
G1 X196.669 Y131.262 E76.24146
G1 X200.700 Y131.882 E76.44494
G1 X200.700 Y175.626 E78.62733
G1 X160.860 Y175.626 E80.61496
G1 X160.860 Y161.635 E81.31297
G1 X147.449 Y161.362 E81.98219
G1 X147.449 Y161.363 E81.98224
G1 X129.874 Y161.011 E82.85923
G1 X130.618 Y130.655 E84.37416
G0 F9000 X131.011 Y130.924
G1 F1800 X144.348 Y125.367 E85.09499
G1 X147.743 Y125.367 E85.26437
G1 X173.174 Y125.123 E86.53318
G1 X183.257 Y124.722 E87.03662
G1 X188.746 Y125.598 E87.31394
G1 X194.949 Y129.495 E87.67941
G1 X196.439 Y131.631 E87.80934
G1 X200.300 Y132.225 E88.00423
G1 X200.300 Y175.226 E90.14956
G1 X161.260 Y175.226 E92.09727
G1 X161.260 Y161.243 E92.79489
G1 X147.457 Y160.962 E93.48367
G1 X147.457 Y160.963 E93.48372
G1 X130.284 Y160.619 E94.34065
G1 X131.011 Y130.924 E95.82259
G0 F9000 X131.405 Y131.193
G1 F1800 X144.428 Y125.767 E96.52644
G1 X147.747 Y125.767 E96.69203
G1 X173.194 Y125.523 E97.96164
G1 X183.233 Y125.124 E98.46289
G1 X188.603 Y125.980 E98.73418
G1 X194.668 Y129.791 E99.09154
G1 X196.209 Y132.001 E99.22596
G1 X199.900 Y132.569 E99.41227
G1 X199.900 Y174.826 E101.52048
G1 X161.660 Y174.826 E103.42828
G1 X161.660 Y160.852 E104.12545
G1 X147.459 Y160.563 E104.83408
G1 X130.694 Y160.227 E105.67066
G1 X131.405 Y131.193 E107.11961
G0 F9000 X131.798 Y131.463
G1 F1800 X144.508 Y126.167 E107.80656
G1 X147.750 Y126.167 E107.96830
G1 X173.214 Y125.922 E109.23876
G1 X183.210 Y125.525 E109.73786
G1 X188.459 Y126.362 E110.00304
G1 X194.386 Y130.086 E110.35226
G1 X195.978 Y132.370 E110.49116
G1 X199.500 Y132.912 E110.66894
G1 X199.500 Y174.426 E112.74009
G1 X162.060 Y174.426 E114.60798
G1 X162.060 Y160.460 E115.30474
G1 X147.467 Y160.163 E116.03294
G1 X131.103 Y159.835 E116.84951
G1 X131.798 Y131.463 E118.26542
G0 F9000 X132.192 Y131.732
G1 F1800 X144.588 Y126.567 E118.93539
G1 X147.754 Y126.567 E119.09335
G1 X173.201 Y126.323 E120.36296
G1 X183.186 Y125.926 E120.86151
G1 X188.315 Y126.744 E121.12063
G1 X194.104 Y130.382 E121.46174
G1 X195.748 Y132.739 E121.60511
G1 X199.100 Y133.255 E121.77431
G1 X199.100 Y174.026 E123.80838
G1 X162.460 Y174.026 E125.63636
G1 X162.460 Y160.070 E126.33263
G1 X162.151 Y160.062 E126.34805
G1 X147.475 Y159.763 E127.08039
G1 X131.513 Y159.443 E127.87690
G1 X132.192 Y131.732 E129.25982
G0 F9000 X132.585 Y132.001
G1 F1800 X144.668 Y126.967 E129.91287
G1 X147.758 Y126.967 E130.06703
G1 X173.220 Y126.722 E131.33739
G1 X183.162 Y126.327 E131.83379
G1 X188.172 Y127.126 E132.08690
G1 X193.823 Y130.677 E132.41987
G1 X195.518 Y133.108 E132.56772
G1 X198.700 Y133.598 E132.72835
G1 X198.700 Y173.626 E134.72535
G1 X162.860 Y173.626 E136.51342
G1 X162.860 Y159.689 E137.20874
G1 X162.660 Y159.675 E137.21874
G1 X162.159 Y159.662 E137.24374
G1 X147.483 Y159.363 E137.97608
G1 X131.923 Y159.052 E138.75253
G1 X132.585 Y132.001 E140.10251
G0 F9000 X132.979 Y132.271
G1 F1800 X144.748 Y127.367 E140.73860
G1 X147.762 Y127.367 E140.88897
G1 X173.239 Y127.122 E142.16009
G1 X183.138 Y126.729 E142.65434
G1 X188.028 Y127.509 E142.90138
G1 X193.541 Y130.973 E143.22622
G1 X195.287 Y133.477 E143.37851
G1 X198.300 Y133.941 E143.53060
G1 X198.300 Y173.226 E145.49054
G1 X163.260 Y173.226 E147.23869
G1 X163.260 Y159.317 E147.93262
G1 X162.678 Y159.275 E147.96173
G1 X162.167 Y159.262 E147.98723
G1 X147.491 Y158.963 E148.71957
G1 X132.332 Y158.660 E149.47601
G1 X132.979 Y132.271 E150.79296
G0 F9000 X133.372 Y132.540
G1 F1800 X144.828 Y127.767 E151.41212
G1 X147.766 Y127.767 E151.55870
G1 X173.258 Y127.522 E152.83056
G1 X183.114 Y127.130 E153.32266
G1 X187.884 Y127.891 E153.56365
G1 X193.259 Y131.268 E153.88034
G1 X195.057 Y133.847 E154.03719
G1 X197.900 Y134.284 E154.18070
G1 X197.900 Y172.826 E156.10356
G1 X163.660 Y172.826 E157.81181
G1 X163.660 Y158.948 E158.50418
G1 X163.541 Y158.936 E158.51015
G1 X162.696 Y158.875 E158.55242
G1 X162.176 Y158.862 E158.57837
G1 X147.500 Y158.563 E159.31071
G1 X132.742 Y158.268 E160.04713
G1 X133.372 Y132.540 E161.33109
G0 F9000 X133.766 Y132.810
G1 F1800 X144.908 Y128.167 E161.93330
G1 X147.770 Y128.167 E162.07609
G1 X173.245 Y127.922 E163.34710
G1 X183.091 Y127.531 E163.83871
G1 X187.741 Y128.273 E164.07363
G1 X192.978 Y131.563 E164.38219
G1 X194.828 Y134.217 E164.54359
G1 X197.500 Y134.628 E164.67846
G1 X197.500 Y172.426 E166.56421
G1 X164.060 Y172.426 E168.23254
G1 X164.060 Y158.584 E168.92312
G1 X163.564 Y158.537 E168.94798
G1 X162.714 Y158.475 E168.99050
G1 X162.184 Y158.462 E169.01695
G1 X147.508 Y158.163 E169.74929
G1 X133.152 Y157.876 E170.46565
G1 X133.766 Y132.810 E171.71658
G0 F9000 X134.160 Y133.079
G1 F1800 X144.988 Y128.567 E172.30181
G1 X147.773 Y128.567 E172.44076
G1 X173.265 Y128.322 E173.71262
G1 X183.067 Y127.932 E174.20203
G1 X187.597 Y128.655 E174.43089
G1 X192.696 Y131.859 E174.73133
G1 X194.597 Y134.586 E174.89718
G1 X197.100 Y134.971 E175.02352
G1 X197.100 Y172.026 E176.87220
G1 X164.460 Y172.026 E178.50062
G1 X164.460 Y158.220 E179.18940
G1 X163.586 Y158.137 E179.23320
G1 X162.753 Y158.077 E179.27487
G1 X162.123 Y158.061 E179.30631
G1 X147.516 Y157.763 E180.03521
G1 X133.562 Y157.484 E180.73152
G1 X134.160 Y133.079 E181.94945
G0 F9000 X134.553 Y133.348
G1 F1800 X145.068 Y128.967 E182.51776
G1 X147.777 Y128.967 E182.65291
G1 X173.285 Y128.722 E183.92557
G1 X183.043 Y128.334 E184.41278
G1 X187.453 Y129.037 E184.63558
G1 X192.415 Y132.154 E184.92792
G1 X194.367 Y134.955 E185.09825
G1 X196.700 Y135.314 E185.21601
G1 X196.700 Y171.626 E187.02763
G1 X164.860 Y171.626 E188.61613
G1 X164.860 Y157.855 E189.30317
G1 X163.649 Y157.741 E189.36385
G1 X162.771 Y157.677 E189.40777
G1 X162.133 Y157.661 E189.43961
G1 X147.524 Y157.363 E190.16861
G1 X133.971 Y157.092 E190.84491
G1 X134.553 Y133.348 E192.02986
G0 F9000 X134.947 Y133.618
G1 F1800 X145.148 Y129.367 E192.58121
G1 X147.781 Y129.367 E192.71257
G1 X173.272 Y129.122 E193.98438
G1 X183.019 Y128.735 E194.47104
G1 X187.310 Y129.419 E194.68782
G1 X192.133 Y132.450 E194.97202
G1 X194.137 Y135.324 E195.14682
G1 X196.300 Y135.657 E195.25600
G1 X196.300 Y171.226 E197.03054
G1 X165.260 Y171.226 E198.57914
G1 X165.260 Y157.496 E199.26413
G1 X165.039 Y157.471 E199.27522
G1 X163.671 Y157.341 E199.34378
G1 X162.789 Y157.277 E199.38790
G1 X162.143 Y157.261 E199.42014
G1 X147.532 Y156.963 E200.14924
G1 X134.381 Y156.700 E200.80547
G1 X134.947 Y133.618 E201.95739
G0 F9000 X135.340 Y133.887
G1 F1800 X145.228 Y129.767 E202.49181
G1 X147.785 Y129.767 E202.61938
G1 X173.292 Y129.522 E203.89199
G1 X182.995 Y129.136 E204.37646
G1 X187.166 Y129.801 E204.58718
G1 X191.851 Y132.745 E204.86323
G1 X193.907 Y135.693 E205.04254
G1 X195.900 Y136.000 E205.14314
G1 X195.900 Y170.826 E206.88062
G1 X165.660 Y170.826 E208.38930
G1 X165.660 Y157.140 E209.07210
G1 X165.073 Y157.072 E209.10158
G1 X163.697 Y156.942 E209.17053
G1 X162.805 Y156.878 E209.21515
G1 X162.153 Y156.861 E209.24769
G1 X147.540 Y156.563 E209.97689
G1 X134.791 Y156.308 E210.61306
G1 X135.340 Y133.887 E211.73199
G0 F9000 X135.734 Y134.156
G1 F1800 X145.308 Y130.167 E212.24944
G1 X147.789 Y130.167 E212.37321
G1 X173.312 Y129.922 E213.64662
G1 X182.972 Y129.538 E214.12894
G1 X187.022 Y130.184 E214.33355
G1 X191.570 Y133.041 E214.60151
G1 X193.677 Y136.063 E214.78530
G1 X195.500 Y136.343 E214.87732
G1 X195.500 Y170.426 E216.57773
G1 X166.060 Y170.426 E218.04649
G1 X166.060 Y156.783 E218.72715
G1 X165.155 Y156.679 E218.77259
G1 X163.715 Y156.542 E218.84476
G1 X162.823 Y156.478 E218.88938
G1 X162.164 Y156.461 E218.92227
G1 X147.553 Y156.163 E219.65136
G1 X147.553 Y156.164 E219.65141
G1 X135.201 Y155.917 E220.26778
G1 X135.734 Y134.156 E221.35377
G0 F9000 X136.127 Y134.426
G1 F1800 X145.388 Y130.567 E221.85431
G1 X147.793 Y130.567 E221.97429
G1 X173.297 Y130.322 E223.24675
G1 X182.948 Y129.939 E223.72862
G1 X186.879 Y130.566 E223.92722
G1 X191.288 Y133.336 E224.18699
G1 X193.447 Y136.433 E224.37534
G1 X195.100 Y136.687 E224.45878
G1 X195.100 Y170.026 E226.12207
G1 X166.460 Y170.026 E227.55092
G1 X166.460 Y156.426 E228.22943
G1 X165.189 Y156.280 E228.29326
G1 X163.737 Y156.143 E228.36602
G1 X162.841 Y156.078 E228.41084
G1 X162.233 Y156.062 E228.44118
G1 X162.233 Y156.063 E228.44123
G1 X147.557 Y155.764 E229.17357
G1 X135.610 Y155.525 E229.76973
G1 X136.127 Y134.426 E230.82268
G0 F9000 X136.521 Y134.695
G1 F1800 X145.468 Y130.967 E231.30625
G1 X147.796 Y130.967 E231.42239
G1 X173.317 Y130.722 E232.69570
G1 X182.924 Y130.340 E233.17537
G1 X186.735 Y130.948 E233.36791
G1 X191.006 Y133.632 E233.61957
G1 X193.217 Y136.802 E233.81239
G1 X194.700 Y137.030 E233.88725
G1 X194.700 Y169.626 E235.51347
G1 X166.860 Y169.626 E236.90241
G1 X166.860 Y156.069 E237.57877
G1 X165.223 Y155.881 E237.66098
G1 X163.805 Y155.747 E237.73204
G1 X162.859 Y155.678 E237.77936
G1 X162.241 Y155.662 E237.81020
G1 X162.241 Y155.663 E237.81025
G1 X147.565 Y155.364 E238.54259
G1 X136.020 Y155.133 E239.11869
G1 X136.521 Y134.695 E240.13865
G0 F9000 X136.914 Y134.964
G1 F1800 X145.548 Y131.367 E240.60529
G1 X147.800 Y131.367 E240.71765
G1 X173.337 Y131.122 E241.99175
G1 X182.900 Y130.741 E242.46923
G1 X186.591 Y131.330 E242.65570
G1 X190.725 Y133.927 E242.89927
G1 X192.987 Y137.171 E243.09657
G1 X194.300 Y137.373 E243.16285
G1 X194.300 Y169.226 E244.75200
G1 X167.260 Y169.226 E246.10103
G1 X167.260 Y155.715 E246.77510
G1 X167.001 Y155.683 E246.78812
G1 X165.256 Y155.482 E246.87575
G1 X163.823 Y155.347 E246.94756
G1 X162.877 Y155.278 E246.99488
G1 X162.249 Y155.262 E247.02623
G1 X162.249 Y155.263 E247.02628
G1 X147.573 Y154.964 E247.75862
G1 X136.430 Y154.741 E248.31465
G1 X136.914 Y134.964 E249.30163
G0 F9000 X137.308 Y135.234
G1 F1800 X145.628 Y131.767 E249.75131
G1 X147.700 Y131.767 E249.85468
G1 X173.357 Y131.520 E251.13478
G1 X182.876 Y131.143 E251.61005
G1 X186.448 Y131.712 E251.79051
G1 X190.443 Y134.223 E252.02592
G1 X192.757 Y137.540 E252.22770
G1 X193.900 Y137.716 E252.28539
G1 X193.900 Y168.826 E253.83748
G1 X167.660 Y168.826 E255.14659
G1 X167.660 Y155.361 E255.81837
G1 X167.070 Y155.289 E255.84802
G1 X165.290 Y155.084 E255.93741
G1 X163.845 Y154.947 E256.00983
G1 X162.916 Y154.880 E256.05629
G1 X162.204 Y154.862 E256.09183
G1 X147.581 Y154.564 E256.82152
G1 X136.839 Y154.349 E257.35755
G1 X137.308 Y135.234 E258.31149
G0 F9000 X137.701 Y135.503
G1 F1800 X145.708 Y132.167 E258.74425
G1 X147.704 Y132.167 E258.84383
G1 X173.377 Y131.920 E260.12472
G1 X182.853 Y131.544 E260.59785
G1 X186.304 Y132.094 E260.77219
G1 X190.162 Y134.518 E260.99951
G1 X192.526 Y137.909 E261.20574
G1 X193.500 Y138.059 E261.25490
G1 X193.500 Y168.426 E262.76992
G1 X168.060 Y168.426 E264.03913
G1 X168.060 Y155.007 E264.70860
G1 X167.098 Y154.889 E264.75696
G1 X165.373 Y154.690 E264.84359
G1 X163.867 Y154.548 E264.91906
G1 X162.934 Y154.480 E264.96573
G1 X162.214 Y154.462 E265.00166
G1 X147.589 Y154.164 E265.73145
G1 X137.249 Y153.957 E266.24742
G1 X137.701 Y135.503 E267.16837
G0 F9000 X138.095 Y135.773
G1 F1800 X145.788 Y132.567 E267.58417
G1 X147.708 Y132.567 E267.67996
G1 X173.396 Y132.320 E268.96160
G1 X182.829 Y131.945 E269.43259
G1 X186.161 Y132.476 E269.60092
G1 X189.880 Y134.813 E269.82005
G1 X192.296 Y138.278 E270.03080
G1 X193.100 Y138.402 E270.07138
G1 X193.100 Y168.026 E271.54933
G1 X168.460 Y168.026 E272.77862
G1 X168.460 Y154.653 E273.44581
G1 X167.147 Y154.492 E273.51180
G1 X165.357 Y154.286 E273.60169
G1 X163.930 Y154.151 E273.67321
G1 X162.952 Y154.080 E273.72213
G1 X162.224 Y154.062 E273.75846
G1 X147.597 Y153.764 E274.48835
G1 X137.659 Y153.565 E274.98426
G1 X138.095 Y135.773 E275.87217
G0 F9000 X138.488 Y136.042
G1 F1800 X145.868 Y132.967 E276.27105
G1 X147.712 Y132.967 E276.36304
G1 X173.383 Y132.720 E277.64384
G1 X182.805 Y132.346 E278.11427
G1 X186.017 Y132.859 E278.27655
G1 X189.598 Y135.109 E278.48754
G1 X192.034 Y138.602 E278.70000
G1 X192.043 Y138.645 E278.70220
G1 X192.700 Y138.746 E278.73536
G1 X192.700 Y167.626 E280.17619
G1 X168.860 Y167.626 E281.36557
G1 X168.860 Y154.299 E282.03046
G1 X167.220 Y154.098 E282.11289
G1 X165.391 Y153.888 E282.20474
G1 X163.953 Y153.752 E282.27680
G1 X162.970 Y153.681 E282.32597
G1 X162.243 Y153.662 E282.36225
G1 X147.606 Y153.364 E283.09265
G1 X138.069 Y153.173 E283.56854
G1 X138.488 Y136.042 E284.42347
G0 F9000 X138.882 Y136.311
G1 F1800 X145.948 Y133.367 E284.80537
G1 X147.716 Y133.367 E284.89357
G1 X173.403 Y133.120 E286.17516
G1 X182.781 Y132.748 E286.64340
G1 X185.873 Y133.241 E286.79961
G1 X189.317 Y135.404 E287.00251
G1 X191.658 Y138.763 E287.20677
G1 X191.706 Y138.998 E287.21874
G1 X192.300 Y139.089 E287.24872
G1 X192.300 Y167.226 E288.65248
G1 X169.260 Y167.226 E289.80195
G1 X169.260 Y153.944 E290.46459
G1 X167.309 Y153.705 E290.56266
G1 X165.474 Y153.494 E290.65481
G1 X163.975 Y153.352 E290.72993
G1 X162.988 Y153.281 E290.77930
