;Generated with Cura_SteamEngine 15.01
; Default start code
G28 ; Home extruder
G1 Z15 F900
M107 ; Turn off fan
G90 ; Absolute positioning
M82 ; Extruder in absolute mode
M190 S50
; Activate all used extruder
M104 T0 S210
G92 E0 ; Reset extruder position
; Wait for all used extruders to reach temperature
M109 T0 S210
;Layer count: 697
;LAYER:0
M107
G0 F9000 X131.238 Y29.584 Z0.300
;TYPE:SKIRT
G1 F1800 X152.716 Y28.331 E1.07336
G1 X171.840 Y27.406 E2.02858
G1 X173.643 Y47.322 E3.02626
G1 X173.644 Y47.322 E3.02631
G1 X175.880 Y71.598 E4.24257
G1 X175.910 Y71.915 E4.25845
G1 X177.264 Y82.976 E4.81441
G1 X178.592 Y94.125 E5.37457
G1 X179.469 Y101.851 E5.76249
G1 X178.346 Y109.059 E6.12644
G1 X176.836 Y119.136 E6.63480
G1 X176.551 Y120.957 E6.72675
G1 X176.172 Y122.772 E6.81926
G1 X176.091 Y123.232 E6.84256
G1 X175.895 Y124.423 E6.90278
G1 X175.780 Y125.233 E6.94359
G1 X175.449 Y127.736 E7.06956
G1 X175.293 Y128.879 E7.12711
G1 X174.778 Y132.340 E7.30168
G1 X174.530 Y133.389 E7.35546
G1 X174.492 Y134.087 E7.39033
G1 X174.156 Y136.277 E7.50087
G1 X173.861 Y138.162 E7.59606
G1 X173.113 Y142.930 E7.83684
G1 X172.705 Y145.292 E7.95643
G1 X172.343 Y147.497 E8.06791
G1 X168.819 Y170.884 E9.24786
G1 X168.674 Y170.896 E9.25512
G1 X168.043 Y174.819 E9.45336
G1 X167.461 Y178.521 E9.64032
G1 X163.287 Y203.727 E10.91498
G1 X126.411 Y200.113 E12.76354
G1 X127.379 Y169.154 E14.30885
G1 X127.379 Y168.988 E14.31713
G1 X128.115 Y152.590 E15.13605
G1 X129.029 Y136.138 E15.95811
G1 X130.045 Y119.996 E16.76503
G1 X131.070 Y104.784 E17.52568
G1 X131.556 Y97.677 E17.88108
G1 X131.557 Y97.677 E17.88113
G1 X132.010 Y91.004 E18.21482
G1 X132.417 Y84.888 E18.52062
G1 X132.416 Y84.888 E18.52067
G1 X132.776 Y79.187 E18.80566
G1 X133.108 Y73.385 E19.09560
G1 X133.317 Y68.928 E19.31820
G1 X133.411 Y65.494 E19.48959
G1 X133.407 Y64.718 E19.52830
G1 X133.381 Y64.210 E19.55368
G1 X133.349 Y63.682 E19.58007
G1 X131.238 Y29.584 E21.28448
G0 F9000 X131.662 Y29.960
G1 F1800 X152.737 Y28.730 E22.33771
G1 X171.476 Y27.824 E23.27369
G1 X173.245 Y47.358 E24.25224
G1 X175.481 Y71.635 E25.46855
G1 X175.482 Y71.635 E25.46860
G1 X175.513 Y71.968 E25.48528
G1 X176.867 Y83.024 E26.04099
G1 X178.195 Y94.171 E26.60105
G1 X179.066 Y101.842 E26.98622
G1 X177.951 Y108.997 E27.34749
G1 X176.440 Y119.075 E27.85590
G1 X176.157 Y120.885 E27.94730
G1 X175.781 Y122.682 E28.03889
G1 X175.707 Y123.106 E28.06037
G1 X175.496 Y124.391 E28.12534
G1 X175.377 Y125.222 E28.16722
G1 X175.052 Y127.683 E28.29106
G1 X174.897 Y128.822 E28.34841
G1 X174.385 Y132.264 E28.52202
G1 X174.133 Y133.329 E28.57662
G1 X174.094 Y134.045 E28.61240
G1 X173.761 Y136.216 E28.72198
G1 X173.466 Y138.100 E28.81711
G1 X172.719 Y142.865 E29.05774
G1 X172.298 Y145.302 E29.18113
G1 X171.947 Y147.439 E29.28917
G1 X168.471 Y170.512 E30.45328
G1 X168.329 Y170.524 E30.46039
G1 X167.648 Y174.755 E30.67419
G1 X167.067 Y178.457 E30.86114
G1 X162.953 Y203.292 E32.11705
G1 X126.822 Y199.751 E33.92827
G1 X127.779 Y169.135 E35.45646
G1 X127.779 Y168.997 E35.46334
G1 X128.514 Y152.610 E36.28171
G1 X129.428 Y136.161 E37.10362
G1 X130.444 Y120.022 E37.91040
G1 X131.469 Y104.811 E38.67100
G1 X131.955 Y97.704 E39.02639
G1 X131.956 Y97.704 E39.02644
G1 X132.409 Y91.031 E39.36013
G1 X132.820 Y84.849 E39.66923
G1 X133.176 Y79.212 E39.95102
G1 X133.499 Y73.560 E40.23346
G1 X133.715 Y68.958 E40.46331
G1 X133.811 Y65.482 E40.63679
G1 X133.807 Y64.717 E40.67496
G1 X133.771 Y64.018 E40.70988
G1 X133.751 Y63.683 E40.72662
G1 X133.750 Y63.683 E40.72667
G1 X131.662 Y29.960 E42.41234
G0 F9000 X132.086 Y30.336
G1 F1800 X152.759 Y29.130 E43.44547
G1 X171.112 Y28.242 E44.36218
G1 X172.847 Y47.395 E45.32164
G1 X175.083 Y71.672 E46.53795
G1 X175.112 Y71.987 E46.55373
G1 X176.470 Y83.072 E47.11090
G1 X177.798 Y94.218 E47.67091
G1 X178.662 Y101.834 E48.05331
G1 X177.572 Y108.825 E48.40631
G1 X176.045 Y119.015 E48.92036
G1 X175.764 Y120.813 E49.01116
G1 X175.386 Y122.622 E49.10336
G1 X175.308 Y123.066 E49.12585
G1 X175.102 Y124.320 E49.18925
G1 X174.988 Y125.116 E49.22936
G1 X174.656 Y127.630 E49.35588
G1 X174.501 Y128.766 E49.41308
G1 X173.992 Y132.189 E49.58573
G1 X173.736 Y133.273 E49.64130
G1 X173.696 Y134.004 E49.67782
G1 X173.366 Y136.155 E49.78639
G1 X173.071 Y138.038 E49.88148
G1 X172.324 Y142.800 E50.12196
G1 X171.889 Y145.319 E50.24950
G1 X171.561 Y147.318 E50.35056
G1 X168.122 Y170.140 E51.50201
G1 X167.983 Y170.152 E51.50897
G1 X167.253 Y174.692 E51.73838
G1 X166.672 Y178.393 E51.92529
G1 X162.620 Y202.857 E53.16243
G1 X127.234 Y199.389 E54.93630
G1 X128.179 Y169.147 E56.44582
G1 X128.179 Y169.006 E56.45285
G1 X128.914 Y152.630 E57.27068
G1 X129.827 Y136.185 E58.09238
G1 X130.843 Y120.048 E58.89906
G1 X131.868 Y104.838 E59.65961
G1 X132.354 Y97.732 E60.01496
G1 X132.355 Y97.732 E60.01501
G1 X132.808 Y91.058 E60.34874
G1 X133.219 Y84.875 E60.65789
G1 X133.568 Y79.348 E60.93418
G1 X133.903 Y73.504 E61.22622
G1 X134.115 Y68.985 E61.45192
G1 X134.211 Y65.501 E61.62581
G1 X134.207 Y64.695 E61.66602
G1 X134.176 Y64.099 E61.69579
G1 X134.150 Y63.658 E61.71783
G1 X134.149 Y63.658 E61.71788
G1 X132.086 Y30.336 E63.38351
G0 F9000 X132.510 Y30.712
G1 F1800 X152.780 Y29.529 E64.39650
G1 X170.749 Y28.660 E65.29403
G1 X172.448 Y47.432 E66.23439
G1 X172.449 Y47.432 E66.23444
G1 X174.685 Y71.709 E67.45075
G1 X174.715 Y72.036 E67.46714
G1 X176.073 Y83.120 E68.02425
G1 X177.400 Y94.264 E68.58416
G1 X178.259 Y101.826 E68.96385
G1 X177.177 Y108.766 E69.31428
G1 X175.650 Y118.954 E69.82823
G1 X175.370 Y120.741 E69.91848
G1 X174.994 Y122.537 E70.01002
G1 X174.911 Y123.012 E70.03408
G1 X174.708 Y124.248 E70.09657
G1 X174.588 Y125.087 E70.13885
G1 X174.260 Y127.577 E70.26415
G1 X174.105 Y128.709 E70.32115
G1 X173.598 Y132.113 E70.49285
G1 X173.338 Y133.215 E70.54934
G1 X173.297 Y133.963 E70.58672
G1 X172.971 Y136.093 E70.69422
G1 X172.676 Y137.977 E70.78936
G1 X171.929 Y142.735 E71.02964
G1 X171.510 Y145.164 E71.15262
G1 X171.152 Y147.346 E71.26293
G1 X167.774 Y169.768 E72.39419
G1 X167.638 Y169.779 E72.40100
G1 X166.858 Y174.628 E72.64603
G1 X166.277 Y178.330 E72.83298
G1 X162.286 Y202.423 E74.05137
G1 X127.645 Y199.028 E75.78789
G1 X128.579 Y169.160 E77.27874
G1 X128.579 Y169.015 E77.28598
G1 X129.313 Y152.650 E78.10325
G1 X130.226 Y136.209 E78.92476
G1 X131.242 Y120.074 E79.73133
G1 X132.267 Y104.865 E80.49183
G1 X132.753 Y97.759 E80.84718
G1 X132.754 Y97.759 E80.84723
G1 X133.207 Y91.086 E81.18092
G1 X133.618 Y84.902 E81.49012
G1 X133.967 Y79.371 E81.76661
G1 X134.301 Y73.545 E82.05775
G1 X134.515 Y68.964 E82.28654
G1 X134.611 Y65.497 E82.45958
G1 X134.607 Y64.693 E82.49969
G1 X134.573 Y64.038 E82.53241
G1 X134.547 Y63.609 E82.55385
G1 X132.510 Y30.712 E84.19824
G0 F9000 X132.934 Y31.087
G1 F1800 X152.801 Y29.929 E85.19109
G1 X170.385 Y29.078 E86.06938
G1 X172.050 Y47.469 E86.99067
G1 X174.286 Y71.747 E88.20703
G1 X174.287 Y71.747 E88.20708
G1 X174.319 Y72.086 E88.22406
G1 X175.676 Y83.168 E88.78108
G1 X177.003 Y94.310 E89.34088
G1 X177.855 Y101.817 E89.71781
G1 X176.765 Y108.812 E90.07101
G1 X175.254 Y118.894 E90.57962
G1 X174.976 Y120.669 E90.66925
G1 X174.600 Y122.473 E90.76119
G1 X174.534 Y122.844 E90.77999
G1 X174.307 Y124.224 E90.84976
G1 X174.186 Y125.075 E90.89264
G1 X173.863 Y127.523 E91.01583
G1 X173.709 Y128.653 E91.07273
G1 X173.205 Y132.038 E91.24347
G1 X172.941 Y133.155 E91.30073
G1 X172.899 Y133.921 E91.33901
G1 X172.575 Y136.032 E91.44556
G1 X172.280 Y137.915 E91.54065
G1 X171.535 Y142.670 E91.78077
G1 X171.101 Y145.183 E91.90800
G1 X170.766 Y147.225 E92.01124
G1 X167.426 Y169.395 E93.12979
G1 X167.293 Y169.406 E93.13644
G1 X166.463 Y174.565 E93.39714
G1 X165.882 Y178.266 E93.58404
G1 X161.953 Y201.988 E94.78366
G1 X128.057 Y198.666 E96.48284
G1 X128.979 Y169.172 E97.95502
G1 X128.979 Y169.024 E97.96240
G1 X129.713 Y152.670 E98.77913
G1 X130.626 Y136.232 E99.60049
G1 X131.641 Y120.100 E100.40691
G1 X132.666 Y104.893 E101.16731
G1 X133.153 Y97.786 E101.52271
G1 X133.606 Y91.113 E101.85640
G1 X134.017 Y84.928 E102.16565
G1 X134.373 Y79.288 E102.44759
G1 X134.700 Y73.586 E102.73253
G1 X134.915 Y68.996 E102.96178
G1 X135.011 Y65.492 E103.13666
G1 X135.007 Y64.670 E103.17767
G1 X134.978 Y64.113 E103.20549
G1 X134.946 Y63.585 E103.23188
G1 X134.947 Y63.585 E103.23193
G1 X132.934 Y31.087 E104.85637
G0 F9000 X133.358 Y31.463
G1 F1800 X152.823 Y30.328 E105.82914
G1 X170.021 Y29.496 E106.68815
G1 X171.651 Y47.505 E107.59030
G1 X171.652 Y47.505 E107.59035
G1 X173.890 Y71.800 E108.80756
G1 X173.889 Y71.800 E108.80761
G1 X173.918 Y72.104 E108.82285
G1 X175.279 Y83.216 E109.38137
G1 X176.606 Y94.356 E109.94108
G1 X177.452 Y101.809 E110.31529
G1 X176.370 Y108.751 E110.66581
G1 X176.369 Y108.751 E110.66586
G1 X174.859 Y118.833 E111.17447
G1 X174.583 Y120.597 E111.26354
G1 X174.209 Y122.386 E111.35473
G1 X174.130 Y122.833 E111.37737
G1 X173.913 Y124.153 E111.44411
G1 X173.797 Y124.970 E111.48528
G1 X173.467 Y127.470 E111.61109
G1 X173.313 Y128.596 E111.66779
G1 X172.812 Y131.962 E111.83757
G1 X172.544 Y133.099 E111.89585
G1 X172.501 Y133.880 E111.93487
G1 X172.180 Y135.971 E112.04041
G1 X171.885 Y137.853 E112.13545
G1 X171.140 Y142.605 E112.37543
G1 X170.707 Y145.115 E112.50250
G1 X170.368 Y147.179 E112.60686
G1 X167.077 Y169.023 E113.70896
G1 X166.947 Y169.034 E113.71546
G1 X166.068 Y174.501 E113.99172
G1 X165.487 Y178.202 E114.17862
G1 X161.619 Y201.554 E115.35953
G1 X128.468 Y198.305 E117.02137
G1 X129.379 Y169.185 E118.47488
G1 X129.379 Y169.033 E118.48246
G1 X130.112 Y152.690 E119.29864
G1 X131.025 Y136.256 E120.11980
G1 X132.041 Y120.126 E120.92612
G1 X133.065 Y104.920 E121.68647
G1 X133.552 Y97.814 E122.04182
G1 X134.005 Y91.140 E122.37556
G1 X134.416 Y84.955 E122.68481
G1 X134.772 Y79.313 E122.96685
G1 X135.105 Y73.499 E123.25738
G1 X135.314 Y69.026 E123.48079
G1 X135.411 Y65.511 E123.65622
G1 X135.407 Y64.668 E123.69828
G1 X135.369 Y63.935 E123.73489
G1 X135.346 Y63.561 E123.75359
G1 X133.358 Y31.463 E125.35803
G0 F9000 X133.782 Y31.839
G1 F1800 X152.844 Y30.728 E126.31065
G1 X169.657 Y29.914 E127.15044
G1 X171.254 Y47.542 E128.03351
G1 X173.492 Y71.837 E129.25072
G1 X173.491 Y71.837 E129.25077
G1 X173.521 Y72.154 E129.26666
G1 X174.881 Y83.264 E129.82507
G1 X176.209 Y94.403 E130.38474
G1 X177.048 Y101.800 E130.75614
G1 X175.990 Y108.588 E131.09888
G1 X174.464 Y118.772 E131.61264
G1 X174.189 Y120.525 E131.70117
G1 X173.818 Y122.296 E131.79144
G1 X173.731 Y122.793 E131.81661
G1 X173.521 Y124.074 E131.88137
G1 X173.394 Y124.958 E131.92593
G1 X173.070 Y127.417 E132.04967
G1 X172.917 Y128.540 E132.10621
G1 X172.419 Y131.887 E132.27503
G1 X172.146 Y133.044 E132.33434
G1 X172.102 Y133.838 E132.37402
G1 X171.785 Y135.910 E132.47859
G1 X171.490 Y137.791 E132.57358
G1 X170.745 Y142.540 E132.81341
G1 X170.337 Y144.903 E132.93304
G1 X169.973 Y147.121 E133.04518
G1 X166.729 Y168.651 E134.13144
G1 X166.602 Y168.662 E134.13780
G1 X165.673 Y174.438 E134.42967
G1 X165.092 Y178.138 E134.61653
G1 X161.286 Y201.119 E135.77867
G1 X128.880 Y197.943 E137.40316
G1 X129.779 Y169.165 E138.83960
G1 X129.779 Y169.042 E138.84573
G1 X130.512 Y152.711 E139.66131
G1 X131.424 Y136.280 E140.48232
G1 X132.440 Y120.152 E141.28854
G1 X133.464 Y104.947 E142.04884
G1 X133.951 Y97.841 E142.40419
G1 X134.404 Y91.167 E142.73793
G1 X134.815 Y84.981 E143.04723
G1 X134.816 Y84.981 E143.04728
G1 X135.166 Y79.440 E143.32427
G1 X135.165 Y79.440 E143.32432
G1 X135.501 Y73.576 E143.61736
G1 X135.715 Y69.003 E143.84575
G1 X135.811 Y65.505 E144.02034
G1 X135.807 Y64.668 E144.06209
G1 X135.768 Y63.915 E144.09971
G1 X135.745 Y63.537 E144.11861
G1 X133.782 Y31.839 E145.70305
G0 F9000 X134.206 Y32.215
G1 F1800 X152.865 Y31.127 E146.63554
G1 X169.294 Y30.332 E147.45614
G1 X170.858 Y47.605 E148.32142
G1 X170.857 Y47.605 E148.32147
G1 X173.092 Y71.858 E149.53658
G1 X173.124 Y72.207 E149.55407
G1 X174.484 Y83.312 E150.11224
G1 X175.811 Y94.449 E150.67180
G1 X176.645 Y101.792 E151.04050
G1 X175.579 Y108.627 E151.38562
G1 X174.068 Y118.712 E151.89438
G1 X173.796 Y120.453 E151.98229
G1 X173.422 Y122.241 E152.07342
G1 X173.334 Y122.739 E152.09865
G1 X173.127 Y124.002 E152.16251
G1 X173.007 Y124.841 E152.20479
G1 X172.674 Y127.364 E152.33175
G1 X172.521 Y128.483 E152.38810
G1 X172.026 Y131.811 E152.55596
G1 X171.748 Y132.988 E152.61630
G1 X171.704 Y133.797 E152.65672
G1 X171.389 Y135.848 E152.76024
G1 X171.095 Y137.729 E152.85523
G1 X170.350 Y142.475 E153.09490
G1 X169.942 Y144.838 E153.21454
G1 X169.575 Y147.075 E153.32764
G1 X166.380 Y168.279 E154.39745
G1 X166.257 Y168.289 E154.40361
G1 X165.278 Y174.374 E154.71109
G1 X164.697 Y178.075 E154.89800
G1 X160.953 Y200.684 E156.04133
G1 X129.291 Y197.581 E157.62852
G1 X130.179 Y169.178 E159.04624
G1 X130.179 Y169.051 E159.05258
G1 X130.911 Y152.731 E159.86760
G1 X131.824 Y136.303 E160.68847
G1 X132.839 Y120.178 E161.49454
G1 X133.863 Y104.974 E162.25479
G1 X134.350 Y97.868 E162.61014
G1 X134.803 Y91.194 E162.94387
G1 X135.214 Y85.008 E163.25317
G1 X135.215 Y85.008 E163.25322
G1 X135.571 Y79.364 E163.53536
G1 X135.900 Y73.617 E163.82255
G1 X136.112 Y69.083 E164.04900
G1 X136.211 Y65.520 E164.22683
G1 X136.207 Y64.636 E164.27093
G1 X136.176 Y64.040 E164.30070
G1 X136.144 Y63.512 E164.32710
G1 X136.145 Y63.512 E164.32715
G1 X134.206 Y32.215 E165.89155
G0 F9000 X134.630 Y32.591
G1 F1800 X152.887 Y31.526 E166.80395
G1 X168.930 Y30.750 E167.60527
G1 X170.457 Y47.615 E168.45011
G1 X172.694 Y71.895 E169.66658
G1 X172.728 Y72.256 E169.68467
G1 X174.087 Y83.360 E170.24278
G1 X175.414 Y94.495 E170.80224
G1 X176.241 Y101.784 E171.16822
G1 X175.184 Y108.566 E171.51066
G1 X173.673 Y118.651 E172.01942
G1 X173.402 Y120.381 E172.10678
G1 X173.031 Y122.151 E172.19701
G1 X172.955 Y122.584 E172.21894
G1 X172.727 Y123.971 E172.28907
G1 X172.603 Y124.841 E172.33291
G1 X172.277 Y127.310 E172.45716
G1 X172.125 Y128.427 E172.51340
G1 X171.633 Y131.736 E172.68030
G1 X171.351 Y132.927 E172.74136
G1 X171.306 Y133.756 E172.78278
G1 X170.994 Y135.787 E172.88530
G1 X170.700 Y137.667 E172.98023
G1 X169.956 Y142.410 E173.21975
G1 X169.535 Y144.850 E173.34328
G1 X169.188 Y146.965 E173.45021
G1 X166.032 Y167.907 E174.50681
G1 X165.912 Y167.917 E174.51282
G1 X164.883 Y174.311 E174.83592
G1 X164.302 Y178.011 E175.02278
G1 X160.619 Y200.250 E176.14740
G1 X129.703 Y197.220 E177.69719
G1 X130.579 Y169.190 E179.09630
G1 X130.579 Y169.060 E179.10278
G1 X131.311 Y152.751 E179.91726
G1 X132.223 Y136.327 E180.73792
G1 X133.238 Y120.204 E181.54389
G1 X134.262 Y105.001 E182.30409
G1 X134.749 Y97.896 E182.65939
G1 X135.202 Y91.221 E182.99318
G1 X135.203 Y91.221 E182.99323
G1 X135.614 Y85.034 E183.30258
G1 X135.965 Y79.465 E183.58097
G1 X136.298 Y73.658 E183.87116
G1 X136.513 Y69.062 E184.10070
G1 X136.611 Y65.514 E184.27778
G1 X136.607 Y64.643 E184.32124
G1 X136.571 Y63.950 E184.35586
G1 X136.543 Y63.488 E184.37895
G1 X136.544 Y63.488 E184.37900
G1 X134.630 Y32.591 E185.92341
G0 F9000 X135.054 Y32.967
G1 F1800 X152.908 Y31.926 E186.81566
G1 X168.566 Y31.168 E187.59776
G1 X170.059 Y47.652 E188.42351
G1 X172.297 Y71.947 E189.64073
G1 X172.296 Y71.947 E189.64078
G1 X172.327 Y72.274 E189.65717
G1 X173.690 Y83.408 E190.21679
G1 X175.017 Y94.541 E190.77615
G1 X175.838 Y101.775 E191.13937
G1 X174.789 Y108.504 E191.47914
G1 X173.277 Y118.591 E191.98800
G1 X173.008 Y120.309 E192.07476
G1 X172.636 Y122.093 E192.16568
G1 X172.560 Y122.520 E192.18731
G1 X172.332 Y123.907 E192.25744
G1 X172.221 Y124.683 E192.29655
G1 X171.881 Y127.257 E192.42608
G1 X171.729 Y128.370 E192.48213
G1 X171.239 Y131.660 E192.64808
G1 X170.954 Y132.870 E192.71009
G1 X170.907 Y133.714 E192.75227
G1 X170.599 Y135.726 E192.85382
G1 X170.305 Y137.605 E192.94870
G1 X169.561 Y142.345 E193.18807
G1 X169.130 Y144.843 E193.31454
G1 X168.791 Y146.908 E193.41894
G1 X165.683 Y167.534 E194.45960
G1 X165.566 Y167.544 E194.46545
G1 X164.498 Y174.187 E194.80113
G1 X163.907 Y177.947 E194.99102
G1 X160.286 Y199.815 E196.09688
G1 X130.114 Y196.858 E197.60937
G1 X130.979 Y169.203 E198.98976
G1 X130.979 Y169.069 E198.99645
G1 X131.710 Y152.771 E199.81038
G1 X132.622 Y136.351 E200.63084
G1 X133.637 Y120.230 E201.43671
