;Generated with Cura_SteamEngine 15.01
; Default start code
G28 ; Home extruder
G1 Z15 F900
M107 ; Turn off fan
G90 ; Absolute positioning
M82 ; Extruder in absolute mode
M190 S50
; Activate all used extruder
M104 T0 S210
G92 E0 ; Reset extruder position
; Wait for all used extruders to reach temperature
M109 T0 S210
;Layer count: 107
;LAYER:0
M107
G0 F9000 X53.150 Y133.641 Z0.300
;TYPE:SKIRT
G1 F1800 X77.430 Y134.502 E1.21210
G1 X87.790 Y134.918 E1.72937
G1 X87.201 Y145.592 E2.26271
G1 X87.131 Y146.303 E2.29836
G1 X86.992 Y147.341 E2.35060
G1 X86.922 Y147.844 E2.37594
G1 X86.714 Y148.907 E2.42998
G1 X86.576 Y149.507 E2.46070
G1 X88.539 Y149.580 E2.55870
G1 X90.941 Y149.669 E2.67862
G1 X90.941 Y149.668 E2.67867
G1 X96.407 Y149.863 E2.95154
G1 X99.998 Y149.989 E3.13081
G1 X103.593 Y150.117 E3.31027
G1 X109.142 Y150.314 E3.58729
G1 X111.536 Y150.397 E3.70680
G1 X113.420 Y150.461 E3.80085
G1 X113.357 Y149.995 E3.82431
G1 X113.341 Y149.935 E3.82740
G1 X113.202 Y148.840 E3.88247
G1 X113.124 Y147.793 E3.93485
G1 X113.094 Y147.135 E3.96771
G1 X113.078 Y146.512 E3.99881
G1 X113.238 Y135.776 E4.53449
G1 X134.850 Y136.544 E5.61339
G1 X147.140 Y137.024 E6.22701
G1 X143.946 Y150.308 E6.90864
G1 X143.693 Y151.197 E6.95476
G1 X143.404 Y152.210 E7.00731
G1 X142.882 Y153.804 E7.09099
G1 X142.659 Y154.437 E7.12447
G1 X141.981 Y156.077 E7.21301
G1 X140.680 Y158.779 E7.36263
G1 X140.218 Y159.614 E7.41024
G1 X138.879 Y161.656 E7.53206
G1 X138.880 Y161.656 E7.53211
G1 X138.132 Y162.800 E7.60030
G1 X137.057 Y164.022 E7.68150
G1 X135.574 Y165.709 E7.79356
G1 X134.916 Y166.342 E7.83911
G1 X132.515 Y168.395 E7.99672
G1 X131.129 Y169.395 E8.08199
G1 X129.219 Y170.638 E8.19568
G1 X126.391 Y172.183 E8.35645
G1 X125.718 Y172.528 E8.39418
G1 X124.336 Y173.131 E8.46941
G1 X123.113 Y173.630 E8.53531
G1 X122.305 Y173.953 E8.57872
G1 X121.455 Y174.256 E8.62374
G1 X120.465 Y174.614 E8.67626
G1 X119.799 Y174.826 E8.71113
G1 X118.501 Y175.240 E8.77910
G1 X116.425 Y175.815 E8.88657
G1 X115.310 Y176.075 E8.94369
G1 X114.249 Y176.315 E8.99797
G1 X112.826 Y176.577 E9.07015
G1 X112.147 Y176.701 E9.10459
G1 X110.307 Y176.970 E9.19736
G1 X109.527 Y177.079 E9.23665
G1 X107.878 Y177.245 E9.31934
G1 X107.878 Y177.246 E9.31939
G1 X107.074 Y177.328 E9.35971
G1 X105.323 Y177.436 E9.44723
G1 X104.500 Y177.486 E9.48837
G1 X102.632 Y177.530 E9.58159
G1 X101.705 Y177.549 E9.62785
G1 X99.603 Y177.470 E9.73279
G1 X99.039 Y177.456 E9.76094
G1 X98.410 Y177.430 E9.79234
G1 X96.343 Y177.357 E9.89553
G1 X95.423 Y177.274 E9.94162
G1 X93.568 Y177.098 E10.03458
G1 X92.748 Y176.990 E10.07584
G1 X91.014 Y176.758 E10.16312
G1 X90.221 Y176.622 E10.20326
G1 X88.571 Y176.333 E10.28683
G1 X87.828 Y176.175 E10.32473
G1 X86.238 Y175.833 E10.40587
G1 X85.344 Y175.606 E10.45189
G1 X84.021 Y175.267 E10.52003
G1 X83.141 Y175.007 E10.56581
G1 X81.899 Y174.620 E10.63071
G1 X80.114 Y173.991 E10.72513
G1 X78.562 Y173.386 E10.80823
G1 X77.850 Y173.103 E10.84646
G1 X76.902 Y172.684 E10.89817
G1 X76.039 Y172.302 E10.94525
G1 X75.381 Y171.984 E10.98171
G1 X75.381 Y171.983 E10.98176
G1 X74.344 Y171.482 E11.03922
G1 X72.638 Y170.586 E11.13536
G1 X69.401 Y168.519 E11.32697
G1 X67.576 Y167.138 E11.44115
G1 X66.372 Y166.134 E11.51936
G1 X64.042 Y163.853 E11.68204
G1 X63.412 Y163.162 E11.72869
G1 X62.036 Y161.349 E11.84224
G1 X61.056 Y160.066 E11.92279
G1 X60.386 Y158.859 E11.99166
G1 X60.387 Y158.859 E11.99171
G1 X59.210 Y156.750 E12.11220
G1 X58.806 Y155.889 E12.15965
G1 X57.693 Y153.081 E12.31035
G1 X57.150 Y151.447 E12.39625
G1 X56.672 Y149.626 E12.49018
G1 X56.357 Y148.212 E12.56245
G1 X56.142 Y147.185 E12.61480
G1 X55.912 Y145.793 E12.68519
G1 X53.150 Y133.641 E13.30692
G0 F9000 X53.655 Y134.059
G1 F1800 X77.414 Y134.902 E14.49301
G1 X87.368 Y135.302 E14.99001
G1 X86.802 Y145.561 E15.50262
G1 X86.733 Y146.257 E15.53751
G1 X86.595 Y147.288 E15.58940
G1 X86.528 Y147.778 E15.61408
G1 X86.323 Y148.824 E15.66726
G1 X86.172 Y149.481 E15.70089
G1 X86.106 Y149.756 E15.71500
G1 X86.069 Y149.888 E15.72184
G1 X88.520 Y149.980 E15.84420
G1 X88.520 Y149.979 E15.84425
G1 X90.938 Y150.068 E15.96497
G1 X96.393 Y150.263 E16.23730
G1 X99.984 Y150.389 E16.41656
G1 X103.579 Y150.517 E16.59603
G1 X109.127 Y150.714 E16.87300
G1 X111.517 Y150.797 E16.99230
G1 X111.517 Y150.796 E16.99235
G1 X113.902 Y150.878 E17.11141
G1 X113.889 Y150.813 E17.11472
G1 X113.825 Y150.472 E17.13203
G1 X113.751 Y149.926 E17.15952
G1 X113.734 Y149.860 E17.16292
G1 X113.600 Y148.800 E17.21622
G1 X113.523 Y147.769 E17.26780
G1 X113.493 Y147.121 E17.30017
G1 X113.478 Y146.510 E17.33066
G1 X113.631 Y136.190 E17.84558
G1 X134.835 Y136.944 E18.90412
G1 X146.637 Y137.404 E19.49337
G1 X143.559 Y150.206 E20.15027
G1 X143.308 Y151.087 E20.19597
G1 X143.021 Y152.093 E20.24816
G1 X142.503 Y153.675 E20.33121
G1 X142.285 Y154.294 E20.36396
G1 X141.615 Y155.914 E20.45142
G1 X140.325 Y158.595 E20.59985
G1 X139.875 Y159.407 E20.64617
G1 X138.538 Y161.448 E20.76790
G1 X137.813 Y162.557 E20.83400
G1 X136.751 Y163.764 E20.91421
G1 X135.285 Y165.432 E21.02500
G1 X134.647 Y166.046 E21.06917
G1 X132.267 Y168.080 E21.22536
G1 X130.902 Y169.064 E21.30931
G1 X129.013 Y170.294 E21.42178
G1 X126.204 Y171.830 E21.58150
G1 X125.547 Y172.166 E21.61832
G1 X124.181 Y172.762 E21.69267
G1 X122.963 Y173.259 E21.75830
G1 X122.163 Y173.578 E21.80127
G1 X121.321 Y173.879 E21.84588
G1 X120.336 Y174.235 E21.89813
G1 X119.678 Y174.445 E21.93259
G1 X119.678 Y174.444 E21.93264
G1 X118.387 Y174.857 E22.00027
G1 X116.326 Y175.428 E22.10696
G1 X115.221 Y175.685 E22.16356
G1 X114.169 Y175.923 E22.21737
G1 X112.754 Y176.184 E22.28916
G1 X112.082 Y176.307 E22.32324
G1 X110.250 Y176.574 E22.41561
G1 X109.479 Y176.682 E22.45445
G1 X107.837 Y176.848 E22.53678
G1 X107.041 Y176.930 E22.57671
G1 X105.298 Y177.036 E22.66383
G1 X104.483 Y177.086 E22.70456
G1 X102.624 Y177.130 E22.79734
G1 X101.708 Y177.149 E22.84304
G1 X99.619 Y177.071 E22.94734
G1 X99.053 Y177.056 E22.97559
G1 X98.427 Y177.030 E23.00684
G1 X96.368 Y176.958 E23.10963
G1 X95.460 Y176.876 E23.15512
G1 X93.613 Y176.700 E23.24768
G1 X92.800 Y176.594 E23.28858
G1 X91.074 Y176.363 E23.37546
G1 X90.289 Y176.228 E23.41520
G1 X88.647 Y175.940 E23.49837
G1 X87.912 Y175.784 E23.53586
G1 X86.329 Y175.444 E23.61663
G1 X85.443 Y175.218 E23.66225
G1 X84.128 Y174.881 E23.72998
G1 X83.258 Y174.624 E23.77524
G1 X82.025 Y174.240 E23.83967
G1 X80.253 Y173.616 E23.93339
G1 X78.709 Y173.014 E24.01607
G1 X78.004 Y172.734 E24.05392
G1 X77.065 Y172.319 E24.10513
G1 X76.207 Y171.939 E24.15195
G1 X75.556 Y171.624 E24.18803
G1 X74.524 Y171.125 E24.24522
G1 X72.839 Y170.240 E24.34018
G1 X69.630 Y168.190 E24.53015
G1 X67.825 Y166.824 E24.64309
G1 X66.641 Y165.837 E24.71999
G1 X64.330 Y163.575 E24.88132
G1 X63.720 Y162.906 E24.92649
G1 X62.370 Y161.127 E25.03791
G1 X61.392 Y159.846 E25.11831
G1 X60.736 Y158.665 E25.18571
G1 X59.566 Y156.568 E25.30551
G1 X59.173 Y155.730 E25.35169
G1 X58.069 Y152.944 E25.50120
G1 X57.533 Y151.334 E25.58586
G1 X57.061 Y149.531 E25.67884
G1 X56.748 Y148.127 E25.75061
G1 X56.535 Y147.111 E25.80240
G1 X56.303 Y145.709 E25.87330
G1 X53.655 Y134.059 E26.46934
G0 F9000 X54.160 Y134.477
G1 F1800 X77.399 Y135.301 E27.62947
G1 X86.946 Y135.685 E28.10616
G1 X86.403 Y145.530 E28.59807
G1 X86.336 Y146.210 E28.63216
G1 X86.199 Y147.234 E28.68370
G1 X86.133 Y147.713 E28.70783
G1 X85.932 Y148.741 E28.76008
G1 X85.782 Y149.390 E28.79332
G1 X85.719 Y149.654 E28.80686
G1 X85.545 Y150.269 E28.83874
G1 X88.510 Y150.379 E28.98677
G1 X90.923 Y150.468 E29.10724
G1 X96.379 Y150.663 E29.37961
G1 X99.970 Y150.789 E29.55888
G1 X103.565 Y150.917 E29.73835
G1 X109.105 Y151.114 E30.01491
G1 X109.105 Y151.113 E30.01496
G1 X111.509 Y151.196 E30.13497
G1 X114.396 Y151.294 E30.27909
G1 X114.303 Y150.843 E30.30206
G1 X114.282 Y150.737 E30.30745
G1 X114.220 Y150.408 E30.32415
G1 X114.144 Y149.846 E30.35245
G1 X114.128 Y149.785 E30.35559
G1 X113.998 Y148.760 E30.40714
G1 X113.922 Y147.745 E30.45792
G1 X113.893 Y147.107 E30.48978
G1 X113.878 Y146.508 E30.51968
G1 X114.025 Y136.604 E31.01385
G1 X134.820 Y137.343 E32.05197
G1 X146.134 Y137.785 E32.61686
G1 X143.172 Y150.105 E33.24902
G1 X142.924 Y150.978 E33.29429
G1 X142.639 Y151.976 E33.34608
G1 X142.124 Y153.546 E33.42851
G1 X141.911 Y154.151 E33.46051
G1 X141.250 Y155.751 E33.54688
G1 X139.969 Y158.411 E33.69417
G1 X139.533 Y159.200 E33.73915
G1 X138.203 Y161.228 E33.86014
G1 X137.493 Y162.315 E33.92491
G1 X136.456 Y163.494 E34.00325
G1 X134.995 Y165.156 E34.11365
G1 X134.378 Y165.749 E34.15634
G1 X132.020 Y167.765 E34.31112
G1 X130.676 Y168.734 E34.39378
G1 X128.808 Y169.950 E34.50498
G1 X126.017 Y171.476 E34.66368
G1 X125.376 Y171.805 E34.69963
G1 X124.025 Y172.394 E34.77316
G1 X122.814 Y172.888 E34.83841
G1 X122.022 Y173.204 E34.88095
G1 X121.221 Y173.490 E34.92338
G1 X120.208 Y173.856 E34.97712
G1 X119.567 Y174.060 E35.01068
G1 X118.272 Y174.474 E35.07851
G1 X116.228 Y175.040 E35.18432
G1 X115.131 Y175.296 E35.24052
G1 X114.089 Y175.531 E35.29381
G1 X112.682 Y175.790 E35.36519
G1 X112.017 Y175.912 E35.39892
G1 X110.194 Y176.178 E35.49083
G1 X109.432 Y176.285 E35.52922
G1 X107.797 Y176.450 E35.61120
G1 X107.008 Y176.531 E35.65078
G1 X105.274 Y176.637 E35.73745
G1 X104.466 Y176.687 E35.77783
G1 X102.615 Y176.730 E35.87021
G1 X101.711 Y176.748 E35.91532
G1 X99.642 Y176.672 E36.01861
G1 X99.066 Y176.656 E36.04736
G1 X98.456 Y176.631 E36.07781
G1 X96.393 Y176.559 E36.18080
G1 X95.497 Y176.477 E36.22569
G1 X93.658 Y176.303 E36.31785
G1 X92.853 Y176.197 E36.35836
G1 X91.135 Y175.967 E36.44483
G1 X90.358 Y175.834 E36.48416
G1 X88.723 Y175.547 E36.56698
G1 X87.996 Y175.393 E36.60405
G1 X86.421 Y175.054 E36.68443
G1 X85.542 Y174.830 E36.72968
G1 X84.234 Y174.496 E36.79703
G1 X83.374 Y174.241 E36.84179
G1 X82.151 Y173.861 E36.90568
G1 X80.392 Y173.240 E36.99874
G1 X78.855 Y172.642 E37.08103
G1 X78.159 Y172.365 E37.11840
G1 X77.225 Y171.952 E37.16935
G1 X76.375 Y171.576 E37.21572
G1 X75.730 Y171.264 E37.25146
G1 X74.704 Y170.768 E37.30832
G1 X73.040 Y169.894 E37.40209
G1 X69.858 Y167.862 E37.59045
G1 X68.074 Y166.511 E37.70210
G1 X66.909 Y165.540 E37.77776
G1 X64.618 Y163.297 E37.93772
G1 X64.028 Y162.650 E37.98140
G1 X62.673 Y160.866 E38.09317
G1 X62.674 Y160.865 E38.09324
G1 X61.728 Y159.626 E38.17101
G1 X61.093 Y158.483 E38.23624
G1 X61.092 Y158.483 E38.23629
G1 X59.923 Y156.385 E38.35612
G1 X59.540 Y155.571 E38.40100
G1 X58.445 Y152.807 E38.54932
G1 X57.917 Y151.220 E38.63276
G1 X57.450 Y149.437 E38.72472
G1 X57.139 Y148.043 E38.79597
G1 X56.929 Y147.037 E38.84725
G1 X56.697 Y145.641 E38.91785
G1 X54.160 Y134.477 E39.48902
G0 F9000 X54.665 Y134.895
G1 F1800 X77.384 Y135.701 E40.62319
G1 X86.524 Y136.069 E41.07956
G1 X86.005 Y145.499 E41.55073
G1 X85.938 Y146.164 E41.58408
G1 X85.803 Y147.180 E41.63521
G1 X85.738 Y147.647 E41.65874
G1 X85.541 Y148.657 E41.71007
G1 X85.393 Y149.298 E41.74290
G1 X85.331 Y149.553 E41.75599
G1 X85.096 Y150.391 E41.79941
G1 X85.011 Y150.649 E41.81296
G1 X88.495 Y150.779 E41.98690
G1 X90.899 Y150.868 E42.10692
G1 X90.899 Y150.867 E42.10697
G1 X96.365 Y151.062 E42.37984
G1 X99.956 Y151.188 E42.55911
G1 X103.550 Y151.316 E42.73853
G1 X109.099 Y151.513 E43.01554
G1 X111.495 Y151.596 E43.13515
G1 X114.901 Y151.712 E43.30517
G1 X114.848 Y151.508 E43.31569
G1 X114.695 Y150.764 E43.35358
G1 X114.675 Y150.661 E43.35882
G1 X114.615 Y150.344 E43.37492
G1 X114.536 Y149.764 E43.40412
G1 X114.522 Y149.709 E43.40695
G1 X114.396 Y148.720 E43.45669
G1 X114.322 Y147.721 E43.50667
G1 X114.293 Y147.093 E43.53803
G1 X114.278 Y146.506 E43.56733
G1 X114.419 Y137.019 E44.04069
G1 X134.805 Y137.743 E45.05839
G1 X145.631 Y138.166 E45.59891
G1 X142.785 Y150.003 E46.20629
G1 X142.539 Y150.868 E46.25116
G1 X142.256 Y151.859 E46.30258
G1 X141.745 Y153.418 E46.38443
G1 X141.538 Y154.008 E46.41562
G1 X140.885 Y155.587 E46.50087
G1 X139.614 Y158.228 E46.64709
G1 X139.190 Y158.994 E46.69077
G1 X137.869 Y161.009 E46.81098
G1 X137.174 Y162.072 E46.87434
G1 X136.151 Y163.235 E46.95162
G1 X134.706 Y164.879 E47.06082
G1 X134.109 Y165.453 E47.10213
G1 X131.773 Y167.450 E47.25546
G1 X130.450 Y168.404 E47.33683
G1 X128.603 Y169.607 E47.44680
G1 X125.830 Y171.123 E47.60447
G1 X125.204 Y171.443 E47.63955
G1 X123.870 Y172.025 E47.71216
G1 X122.664 Y172.517 E47.77714
G1 X121.880 Y172.830 E47.81926
G1 X121.052 Y173.126 E47.86313
G1 X121.052 Y173.125 E47.86318
G1 X120.079 Y173.477 E47.91480
G1 X119.436 Y173.682 E47.94847
G1 X118.158 Y174.090 E48.01540
G1 X116.129 Y174.652 E48.12044
G1 X115.041 Y174.906 E48.17618
G1 X114.008 Y175.140 E48.22902
G1 X112.610 Y175.397 E48.29994
G1 X111.952 Y175.517 E48.33331
G1 X110.137 Y175.782 E48.42482
G1 X109.384 Y175.888 E48.46275
G1 X107.743 Y176.054 E48.54504
G1 X107.743 Y176.053 E48.54509
G1 X106.976 Y176.132 E48.58356
G1 X105.249 Y176.238 E48.66988
G1 X104.449 Y176.287 E48.70987
G1 X102.606 Y176.330 E48.80184
G1 X101.715 Y176.348 E48.84630
G1 X99.669 Y176.272 E48.94845
G1 X99.080 Y176.256 E48.97785
G1 X98.485 Y176.232 E49.00755
G1 X96.418 Y176.159 E49.11074
G1 X95.534 Y176.079 E49.15503
G1 X93.703 Y175.905 E49.24679
G1 X92.905 Y175.801 E49.28693
G1 X91.195 Y175.572 E49.37301
G1 X90.426 Y175.439 E49.41194
G1 X88.799 Y175.155 E49.49434
G1 X88.079 Y175.002 E49.53107
G1 X86.512 Y174.665 E49.61103
G1 X85.641 Y174.443 E49.65587
G1 X84.341 Y174.110 E49.72283
G1 X83.490 Y173.858 E49.76710
G1 X82.277 Y173.481 E49.83048
G1 X80.531 Y172.865 E49.92285
G1 X79.001 Y172.270 E50.00475
G1 X78.314 Y171.996 E50.04165
G1 X77.387 Y171.586 E50.09222
G1 X76.543 Y171.213 E50.13825
G1 X75.905 Y170.904 E50.17362
G1 X74.884 Y170.411 E50.23019
G1 X73.241 Y169.547 E50.32280
G1 X70.087 Y167.533 E50.50950
G1 X68.323 Y166.198 E50.61987
G1 X67.178 Y165.243 E50.69425
G1 X64.906 Y163.019 E50.85287
G1 X64.335 Y162.393 E50.89514
G1 X62.992 Y160.624 E51.00595
G1 X62.063 Y159.407 E51.08233
G1 X61.435 Y158.277 E51.14683
G1 X61.436 Y158.277 E51.14688
G1 X60.279 Y156.202 E51.26541
G1 X59.908 Y155.412 E51.30895
G1 X58.821 Y152.670 E51.45611
G1 X58.301 Y151.106 E51.53833
G1 X57.839 Y149.343 E51.62926
G1 X57.530 Y147.958 E51.70006
G1 X57.322 Y146.964 E51.75072
G1 X57.091 Y145.569 E51.82127
G1 X54.665 Y134.895 E52.36738
G0 F9000 X55.171 Y135.313
G1 F1800 X77.369 Y136.101 E53.47554
G1 X86.103 Y136.452 E53.91163
G1 X85.606 Y145.469 E54.36217
G1 X85.541 Y146.118 E54.39471
G1 X85.406 Y147.126 E54.44545
G1 X85.344 Y147.581 E54.46836
G1 X85.149 Y148.574 E54.51885
G1 X85.004 Y149.206 E54.55120
G1 X84.944 Y149.452 E54.56383
G1 X84.713 Y150.274 E54.60643
G1 X84.465 Y151.030 E54.64612
G1 X84.641 Y151.036 E54.65491
G1 X88.480 Y151.179 E54.84657
G1 X90.884 Y151.268 E54.96659
G1 X90.884 Y151.267 E54.96664
G1 X96.350 Y151.462 E55.23951
G1 X99.942 Y151.588 E55.41883
G1 X103.536 Y151.716 E55.59825
G1 X109.085 Y151.913 E55.87526
G1 X111.481 Y151.996 E55.99487
G1 X115.245 Y152.124 E56.18277
G1 X115.421 Y152.130 E56.19155
G1 X115.415 Y152.105 E56.19283
G1 X115.238 Y151.418 E56.22823
G1 X115.087 Y150.684 E56.26562
G1 X115.067 Y150.584 E56.27070
G1 X115.010 Y150.280 E56.28613
G1 X114.931 Y149.695 E56.31558
G1 X114.915 Y149.634 E56.31873
G1 X114.794 Y148.680 E56.36671
G1 X114.721 Y147.697 E56.41588
G1 X114.693 Y147.079 E56.44675
G1 X114.679 Y146.504 E56.47544
G1 X114.813 Y137.433 E56.92805
G1 X134.791 Y138.143 E57.92538
G1 X145.129 Y138.546 E58.44154
G1 X142.398 Y149.902 E59.02425
G1 X142.154 Y150.759 E59.06870
G1 X141.873 Y151.741 E59.11966
G1 X141.367 Y153.289 E59.20091
G1 X141.164 Y153.865 E59.23138
G1 X140.519 Y155.424 E59.31555
G1 X139.258 Y158.044 E59.46062
G1 X138.847 Y158.787 E59.50298
G1 X137.534 Y160.790 E59.62246
G1 X136.855 Y161.829 E59.68439
G1 X135.855 Y162.966 E59.75993
G1 X134.417 Y164.602 E59.86860
G1 X133.840 Y165.156 E59.90851
G1 X131.525 Y167.136 E60.06048
G1 X130.224 Y168.074 E60.14050
G1 X128.397 Y169.263 E60.24926
G1 X125.642 Y170.769 E60.40590
G1 X125.033 Y171.081 E60.44004
G1 X123.714 Y171.656 E60.51182
G1 X122.514 Y172.146 E60.57649
G1 X121.739 Y172.456 E60.61813
G1 X120.918 Y172.749 E60.66162
G1 X120.918 Y172.748 E60.66167
G1 X119.950 Y173.099 E60.71304
G1 X119.314 Y173.301 E60.74634
G1 X118.044 Y173.707 E60.81286
