;Generated with Cura_SteamEngine 15.01
; Default start code
G28 ; Home extruder
G1 Z15 F900
M107 ; Turn off fan
G90 ; Absolute positioning
M82 ; Extruder in absolute mode
M190 S50
; Activate all used extruder
M104 T0 S210
G92 E0 ; Reset extruder position
; Wait for all used extruders to reach temperature
M109 T0 S210
;Layer count: 513
;LAYER:0
M107
G0 F9000 X77.718 Y141.342 Z0.300
;TYPE:SKIRT
G1 F1800 X82.726 Y139.653 E0.26368
G1 X99.157 Y130.213 E1.20908
G1 X107.649 Y125.862 E1.68512
G1 X116.111 Y122.105 E2.14703
G1 X124.591 Y118.992 E2.59771
G1 X132.890 Y116.668 E3.02767
G1 X137.429 Y115.729 E3.25892
G1 X141.774 Y115.063 E3.47823
G1 X146.135 Y114.644 E3.69680
G1 X150.518 Y114.487 E3.91561
G1 X154.909 Y114.615 E4.13477
G1 X159.280 Y115.040 E4.35387
G1 X163.605 Y115.773 E4.57272
G1 X167.856 Y116.812 E4.79105
G1 X172.013 Y118.154 E5.00898
G1 X176.041 Y119.785 E5.22578
G1 X179.917 Y121.680 E5.44103
G1 X183.637 Y123.822 E5.65519
G1 X187.201 Y126.194 E5.86878
G1 X190.812 Y128.936 E6.09499
G1 X196.883 Y134.416 E6.50301
G1 X202.645 Y140.794 E6.93184
G1 X207.582 Y147.362 E7.34176
G1 X208.011 Y147.967 E7.37877
G1 X214.890 Y158.637 E8.01213
G1 X203.728 Y179.250 E9.18162
G1 X184.437 Y179.356 E10.14406
G1 X176.775 Y173.610 E10.62187
G1 X171.423 Y166.461 E11.06741
G1 X168.264 Y162.938 E11.30349
G1 X164.977 Y159.954 E11.52497
G1 X163.789 Y159.049 E11.59948
G1 X162.216 Y157.989 E11.69411
G1 X160.770 Y157.149 E11.77754
G1 X160.055 Y156.794 E11.81737
G1 X159.386 Y156.461 E11.85465
G1 X158.018 Y155.902 E11.92838
G1 X156.592 Y155.434 E12.00326
G1 X155.142 Y155.068 E12.07787
G1 X153.660 Y154.811 E12.15291
G1 X152.023 Y154.645 E12.23500
G1 X150.256 Y154.581 E12.32321
G1 X148.389 Y154.635 E12.41639
G1 X148.308 Y154.642 E12.42045
G1 X146.343 Y154.824 E12.51890
G1 X146.138 Y154.854 E12.52924
G1 X144.146 Y155.146 E12.62968
G1 X143.689 Y155.237 E12.65293
G1 X141.987 Y155.578 E12.73953
G1 X140.173 Y156.068 E12.83328
G1 X140.173 Y156.067 E12.83333
G1 X136.559 Y157.058 E13.02028
G1 X133.971 Y157.982 E13.15738
G1 X130.830 Y159.121 E13.32407
G1 X126.805 Y160.861 E13.54284
G1 X124.596 Y161.825 E13.66309
G1 X119.006 Y164.632 E13.97516
G1 X117.952 Y165.165 E14.03408
G1 X106.026 Y171.868 E14.71661
G1 X102.504 Y175.646 E14.97430
G1 X94.457 Y178.370 E15.39814
G1 X94.320 Y178.447 E15.40598
G1 X94.305 Y178.421 E15.40748
G1 X82.478 Y182.425 E16.03043
G1 X65.220 Y159.920 E17.44534
G1 X73.903 Y146.918 E18.22536
G1 X75.269 Y144.922 E18.34603
G1 X74.847 Y144.180 E18.38861
G1 X76.378 Y143.300 E18.47672
G1 X77.718 Y141.342 E18.59509
G0 F9000 X77.973 Y141.679
G1 F1800 X82.887 Y140.021 E18.85383
G1 X99.348 Y130.565 E19.80093
G1 X107.821 Y126.223 E20.27592
G1 X116.261 Y122.476 E20.73662
G1 X124.714 Y119.373 E21.18586
G1 X132.985 Y117.057 E21.61437
G1 X137.500 Y116.122 E21.84441
G1 X141.824 Y115.460 E22.06265
G1 X146.161 Y115.043 E22.28002
G1 X150.519 Y114.887 E22.49758
G1 X154.884 Y115.014 E22.71544
G1 X159.227 Y115.437 E22.93314
G1 X163.524 Y116.165 E23.15057
G1 X167.747 Y117.197 E23.36746
G1 X171.876 Y118.530 E23.58393
G1 X175.878 Y120.150 E23.79932
G1 X179.729 Y122.034 E24.01321
G1 X183.426 Y124.163 E24.22605
G1 X186.969 Y126.520 E24.43835
G1 X190.557 Y129.244 E24.66310
G1 X196.599 Y134.699 E25.06922
G1 X202.336 Y141.048 E25.49613
G1 X207.259 Y147.598 E25.90492
G1 X207.680 Y148.191 E25.94121
G1 X214.426 Y158.655 E26.56234
G1 X203.489 Y178.852 E27.70823
G1 X184.570 Y178.956 E28.65211
G1 X177.061 Y173.324 E29.12040
G1 X171.732 Y166.206 E29.56402
G1 X168.549 Y162.657 E29.80186
G1 X165.236 Y159.649 E30.02511
G1 X164.010 Y158.715 E30.10200
G1 X162.433 Y157.653 E30.19685
G1 X160.956 Y156.795 E30.28207
G1 X160.233 Y156.436 E30.32235
G1 X159.553 Y156.098 E30.36023
G1 X158.155 Y155.526 E30.43559
G1 X156.697 Y155.048 E30.51214
G1 X155.230 Y154.678 E30.58762
G1 X153.710 Y154.414 E30.66459
G1 X152.048 Y154.245 E30.74793
G1 X150.259 Y154.180 E30.83725
G1 X148.357 Y154.235 E30.93218
G1 X148.272 Y154.243 E30.93644
G1 X146.328 Y154.423 E31.03384
G1 X146.030 Y154.466 E31.04886
G1 X146.030 Y154.465 E31.04891
G1 X144.069 Y154.753 E31.14779
G1 X143.611 Y154.844 E31.17109
G1 X141.890 Y155.189 E31.25866
G1 X140.138 Y155.662 E31.34920
G1 X140.138 Y155.663 E31.34925
G1 X136.441 Y156.676 E31.54049
G1 X133.747 Y157.638 E31.68321
G1 X130.685 Y158.748 E31.84570
G1 X126.711 Y160.466 E32.06169
G1 X124.428 Y161.463 E32.18598
G1 X118.827 Y164.275 E32.49866
G1 X118.827 Y164.274 E32.49871
G1 X117.755 Y164.817 E32.55866
G1 X105.775 Y171.550 E33.24427
G1 X102.280 Y175.300 E33.50001
G1 X82.621 Y181.955 E34.53548
G1 X65.712 Y159.904 E35.92182
G1 X74.235 Y147.142 E36.68745
G1 X75.740 Y144.942 E36.82043
G1 X75.391 Y144.328 E36.85567
G1 X76.659 Y143.600 E36.92861
G1 X77.973 Y141.679 E37.04473
G0 F9000 X78.227 Y142.015
G1 F1800 X83.055 Y140.387 E37.29892
G1 X99.539 Y130.916 E38.24739
G1 X107.994 Y126.584 E38.72136
G1 X116.411 Y122.847 E39.18081
G1 X124.837 Y119.754 E39.62861
G1 X133.079 Y117.446 E40.05563
G1 X137.571 Y116.516 E40.28449
G1 X141.873 Y115.857 E40.50162
G1 X146.187 Y115.443 E40.71783
G1 X150.521 Y115.287 E40.93420
G1 X154.858 Y115.414 E41.15066
G1 X159.174 Y115.833 E41.36700
G1 X163.443 Y116.557 E41.58302
G1 X167.638 Y117.582 E41.79847
G1 X171.739 Y118.906 E42.01347
G1 X175.715 Y120.516 E42.22748
G1 X179.542 Y122.387 E42.44000
G1 X183.215 Y124.503 E42.65148
G1 X186.737 Y126.846 E42.86253
G1 X190.301 Y129.553 E43.08581
G1 X196.316 Y134.982 E43.49006
G1 X202.027 Y141.303 E43.91506
G1 X206.936 Y147.833 E44.32264
G1 X207.348 Y148.415 E44.35821
G1 X213.961 Y158.672 E44.96707
G1 X203.250 Y178.453 E46.08934
G1 X184.702 Y178.555 E47.01472
G1 X177.347 Y173.039 E47.47339
G1 X172.041 Y165.951 E47.91511
G1 X168.829 Y162.370 E48.15511
G1 X165.497 Y159.345 E48.37963
G1 X164.258 Y158.401 E48.45734
G1 X162.634 Y157.306 E48.55506
G1 X161.141 Y156.439 E48.64120
G1 X159.721 Y155.734 E48.72029
G1 X158.293 Y155.150 E48.79726
G1 X156.806 Y154.663 E48.87533
G1 X155.303 Y154.283 E48.95267
G1 X153.778 Y154.019 E49.02988
G1 X152.087 Y153.847 E49.11468
G1 X150.246 Y153.780 E49.20659
G1 X148.345 Y153.835 E49.30147
G1 X148.237 Y153.845 E49.30688
G1 X146.272 Y154.027 E49.40534
G1 X145.973 Y154.070 E49.42041
G1 X145.973 Y154.069 E49.42046
G1 X144.016 Y154.357 E49.51915
G1 X143.534 Y154.452 E49.54366
G1 X141.801 Y154.799 E49.63183
G1 X140.032 Y155.277 E49.72325
G1 X136.319 Y156.294 E49.91532
G1 X133.612 Y157.261 E50.05873
G1 X130.536 Y158.376 E50.22196
G1 X126.487 Y160.127 E50.44205
G1 X124.252 Y161.103 E50.56372
G1 X118.647 Y163.917 E50.87662
G1 X117.566 Y164.464 E50.93706
G1 X105.525 Y171.232 E51.62618
G1 X102.056 Y174.953 E51.87998
G1 X82.764 Y181.484 E52.89612
G1 X66.203 Y159.888 E54.25388
G1 X74.566 Y147.366 E55.00512
G1 X76.211 Y144.961 E55.15049
G1 X75.936 Y144.477 E55.17826
G1 X76.935 Y143.903 E55.23575
G1 X78.227 Y142.015 E55.34988
G0 F9000 X78.482 Y142.351
G1 F1800 X83.219 Y140.754 E55.59928
G1 X99.730 Y131.268 E56.54929
G1 X108.166 Y126.945 E57.02221
G1 X116.561 Y123.218 E57.48045
G1 X124.960 Y120.135 E57.92682
G1 X133.174 Y117.835 E58.35238
G1 X137.642 Y116.910 E58.58002
G1 X141.923 Y116.254 E58.79609
G1 X146.214 Y115.842 E59.01115
G1 X150.522 Y115.687 E59.22622
G1 X154.833 Y115.813 E59.44139
G1 X159.121 Y116.230 E59.65633
G1 X163.362 Y116.949 E59.87093
G1 X167.529 Y117.967 E60.08494
G1 X171.603 Y119.283 E60.29853
G1 X175.552 Y120.881 E60.51107
G1 X179.354 Y122.741 E60.72223
G1 X183.005 Y124.843 E60.93241
G1 X186.505 Y127.172 E61.14215
G1 X190.046 Y129.861 E61.36398
G1 X196.033 Y135.266 E61.76639
G1 X201.719 Y141.558 E62.18948
G1 X206.613 Y148.069 E62.59585
G1 X207.017 Y148.639 E62.63070
G1 X213.497 Y158.690 E63.22733
G1 X203.011 Y178.054 E64.32596
G1 X184.835 Y178.154 E65.23278
G1 X177.633 Y172.753 E65.68190
G1 X172.351 Y165.698 E66.12159
G1 X169.114 Y162.089 E66.36346
G1 X165.749 Y159.034 E66.59021
G1 X164.491 Y158.075 E66.66912
G1 X162.851 Y156.970 E66.76778
G1 X161.334 Y156.089 E66.85530
G1 X159.888 Y155.371 E66.93585
G1 X158.426 Y154.773 E67.01466
G1 X156.915 Y154.278 E67.09398
G1 X155.391 Y153.893 E67.17240
G1 X153.830 Y153.622 E67.25145
G1 X152.110 Y153.447 E67.33770
G1 X150.250 Y153.380 E67.43056
G1 X148.315 Y153.436 E67.52713
G1 X148.274 Y153.440 E67.52919
G1 X146.218 Y153.630 E67.63220
G1 X145.916 Y153.674 E67.64743
G1 X143.939 Y153.964 E67.74712
G1 X143.456 Y154.060 E67.77168
G1 X141.708 Y154.410 E67.86062
G1 X139.927 Y154.891 E67.95266
G1 X136.197 Y155.913 E68.14561
G1 X133.562 Y156.854 E68.28520
G1 X130.386 Y158.005 E68.45374
G1 X126.391 Y159.733 E68.67089
G1 X124.084 Y160.741 E68.79650
G1 X118.468 Y163.560 E69.11000
G1 X118.468 Y163.559 E69.11005
G1 X117.377 Y164.111 E69.17105
G1 X105.275 Y170.913 E69.86365
G1 X101.833 Y174.607 E70.11555
G1 X82.907 Y181.013 E71.11239
G1 X66.695 Y159.872 E72.44155
G1 X74.897 Y147.590 E73.17837
G1 X76.682 Y144.981 E73.33608
G1 X76.480 Y144.625 E73.35650
G1 X77.215 Y144.203 E73.39879
G1 X78.482 Y142.351 E73.51074
G0 F9000 X78.736 Y142.687
G1 F1800 X83.389 Y141.118 E73.75572
G1 X99.921 Y131.620 E74.70693
G1 X108.339 Y127.306 E75.17885
G1 X116.712 Y123.589 E75.63589
G1 X125.083 Y120.515 E76.08079
G1 X133.269 Y118.224 E76.50488
G1 X137.713 Y117.304 E76.73129
G1 X141.972 Y116.651 E76.94626
G1 X146.240 Y116.241 E77.16017
G1 X150.523 Y116.087 E77.37399
G1 X154.808 Y116.213 E77.58786
G1 X159.068 Y116.627 E77.80139
G1 X163.281 Y117.341 E78.01458
G1 X167.420 Y118.352 E78.22715
G1 X171.466 Y119.659 E78.43927
G1 X175.388 Y121.247 E78.65037
G1 X179.166 Y123.094 E78.86018
G1 X182.794 Y125.183 E79.06904
G1 X186.273 Y127.498 E79.27752
G1 X189.791 Y130.169 E79.49789
G1 X195.750 Y135.549 E79.89843
G1 X201.410 Y141.813 E80.31962
G1 X206.290 Y148.305 E80.72480
G1 X206.685 Y148.863 E80.75891
G1 X213.032 Y158.708 E81.34331
G1 X202.772 Y177.655 E82.41827
G1 X184.967 Y177.753 E83.30658
G1 X177.919 Y172.467 E83.74611
G1 X172.663 Y165.448 E84.18359
G1 X169.398 Y161.807 E84.42758
G1 X166.002 Y158.724 E84.65641
G1 X164.719 Y157.746 E84.73689
G1 X163.060 Y156.628 E84.83670
G1 X161.525 Y155.737 E84.92525
G1 X160.767 Y155.361 E84.96746
G1 X160.045 Y155.002 E85.00769
G1 X158.580 Y154.403 E85.08665
G1 X157.020 Y153.892 E85.16855
G1 X155.477 Y153.502 E85.24795
G1 X153.883 Y153.225 E85.32867
G1 X152.135 Y153.048 E85.41632
G1 X150.252 Y152.980 E85.51033
G1 X148.301 Y153.036 E85.60771
G1 X148.166 Y153.048 E85.61447
G1 X146.183 Y153.231 E85.71382
G1 X145.859 Y153.278 E85.73015
G1 X143.863 Y153.571 E85.83080
G1 X143.420 Y153.659 E85.85333
G1 X141.618 Y154.020 E85.94502
G1 X139.756 Y154.523 E86.04125
G1 X136.087 Y155.528 E86.23104
G1 X133.343 Y156.508 E86.37641
G1 X130.234 Y157.635 E86.54139
G1 X126.231 Y159.366 E86.75897
G1 X123.908 Y160.381 E86.88545
G1 X118.339 Y163.177 E87.19634
G1 X117.179 Y163.764 E87.26120
G1 X105.025 Y170.595 E87.95677
G1 X101.609 Y174.260 E88.20673
G1 X83.050 Y180.543 E89.18426
G1 X67.187 Y159.855 E90.48488
G1 X75.229 Y147.814 E91.20728
G1 X77.154 Y145.000 E91.37737
G1 X77.025 Y144.774 E91.39035
G1 X77.492 Y144.506 E91.41722
G1 X78.736 Y142.687 E91.52716
G0 F9000 X78.991 Y143.024
G1 F1800 X83.548 Y141.487 E91.76709
G1 X100.112 Y131.971 E92.72014
G1 X108.511 Y127.667 E93.19098
G1 X116.862 Y123.960 E93.64682
G1 X125.206 Y120.896 E94.09028
G1 X133.363 Y118.613 E94.51288
G1 X137.784 Y117.698 E94.73811
G1 X142.022 Y117.048 E94.95202
G1 X146.266 Y116.641 E95.16473
G1 X150.525 Y116.488 E95.37735
G1 X154.783 Y116.612 E95.58987
G1 X159.015 Y117.024 E95.80200
G1 X163.200 Y117.733 E96.01377
G1 X167.311 Y118.737 E96.22489
G1 X171.329 Y120.035 E96.43555
G1 X175.225 Y121.612 E96.64525
G1 X178.978 Y123.447 E96.85367
G1 X182.583 Y125.523 E97.06121
G1 X186.041 Y127.824 E97.26843
G1 X189.535 Y130.478 E97.48734
G1 X195.467 Y135.832 E97.88600
G1 X201.101 Y142.067 E98.30525
G1 X205.967 Y148.541 E98.70930
G1 X206.354 Y149.087 E98.74269
G1 X212.568 Y158.726 E99.31485
G1 X202.533 Y177.257 E100.36622
G1 X185.099 Y177.353 E101.23602
G1 X178.205 Y172.182 E101.66596
G1 X172.983 Y165.208 E102.10063
G1 X172.971 Y165.191 E102.10166
G1 X169.683 Y161.526 E102.34731
G1 X166.256 Y158.414 E102.57826
G1 X164.960 Y157.427 E102.65953
G1 X163.268 Y156.287 E102.76132
G1 X161.716 Y155.386 E102.85085
G1 X160.944 Y155.003 E102.89384
G1 X160.210 Y154.638 E102.93474
G1 X158.713 Y154.025 E103.01545
G1 X157.130 Y153.506 E103.09856
G1 X155.565 Y153.111 E103.17909
G1 X153.935 Y152.828 E103.26162
G1 X152.159 Y152.648 E103.35068
G1 X150.270 Y152.580 E103.44499
G1 X148.255 Y152.638 E103.54556
G1 X148.200 Y152.643 E103.54831
G1 X146.129 Y152.835 E103.65208
G1 X145.802 Y152.882 E103.66856
G1 X143.809 Y153.174 E103.76905
G1 X143.301 Y153.275 E103.79489
G1 X141.524 Y153.631 E103.88531
G1 X139.651 Y154.137 E103.98210
G1 X135.969 Y155.145 E104.17256
G1 X133.209 Y156.131 E104.31878
G1 X130.084 Y157.264 E104.48462
G1 X126.011 Y159.025 E104.70600
G1 X123.762 Y160.007 E104.82843
G1 X118.109 Y162.845 E105.14401
G1 X116.991 Y163.411 E105.20652
G1 X104.776 Y170.276 E105.90558
G1 X101.385 Y173.914 E106.15370
G1 X83.193 Y180.072 E107.11189
G1 X67.678 Y159.839 E108.38394
G1 X75.560 Y148.038 E109.09194
G1 X77.625 Y145.020 E109.27438
G1 X77.569 Y144.922 E109.28001
G1 X77.772 Y144.805 E109.29170
G1 X78.991 Y143.024 E109.39937
G0 F9000 X79.246 Y143.360
G1 F1800 X83.716 Y141.853 E109.63471
G1 X100.303 Y132.323 E110.58910
G1 X108.684 Y128.029 E111.05892
G1 X117.012 Y124.331 E111.51353
G1 X125.329 Y121.277 E111.95555
G1 X133.458 Y119.002 E112.37669
G1 X137.855 Y118.091 E112.60072
G1 X142.071 Y117.446 E112.81350
G1 X146.293 Y117.040 E113.02511
G1 X150.526 Y116.888 E113.23643
G1 X154.757 Y117.012 E113.44761
G1 X158.963 Y117.420 E113.65843
G1 X163.119 Y118.125 E113.86874
G1 X167.202 Y119.122 E114.07842
G1 X171.193 Y120.411 E114.28766
G1 X175.062 Y121.978 E114.49592
G1 X178.790 Y123.801 E114.70296
G1 X182.372 Y125.863 E114.90916
G1 X185.809 Y128.150 E115.11512
G1 X189.280 Y130.786 E115.33257
G1 X195.184 Y136.116 E115.72939
G1 X200.792 Y142.322 E116.14670
G1 X205.644 Y148.777 E116.54957
G1 X206.022 Y149.311 E116.58221
G1 X212.103 Y158.743 E117.14210
G1 X202.294 Y176.858 E118.16985
G1 X185.232 Y176.952 E119.02109
G1 X178.490 Y171.896 E119.44152
G1 X173.282 Y164.940 E119.87505
G1 X169.968 Y161.244 E120.12271
G1 X166.515 Y158.110 E120.35536
G1 X165.188 Y157.098 E120.43862
G1 X163.482 Y155.949 E120.54123
G1 X161.907 Y155.034 E120.63211
G1 X161.122 Y154.644 E120.67584
G1 X160.382 Y154.276 E120.71707
G1 X158.849 Y153.650 E120.79968
G1 X157.248 Y153.125 E120.88374
G1 X155.638 Y152.718 E120.96659
G1 X153.990 Y152.432 E121.05004
G1 X152.198 Y152.250 E121.13991
G1 X150.258 Y152.180 E121.23676
G1 X148.241 Y152.238 E121.33743
G1 X148.149 Y152.246 E121.34203
G1 X146.075 Y152.438 E121.44595
G1 X145.745 Y152.486 E121.46258
G1 X143.732 Y152.781 E121.56409
G1 X143.223 Y152.882 E121.58998
G1 X141.446 Y153.238 E121.68039
G1 X139.610 Y153.734 E121.77527
G1 X135.831 Y154.769 E121.97075
G1 X133.153 Y155.726 E122.11263
G1 X129.935 Y156.893 E122.28341
G1 X125.910 Y158.633 E122.50218
G1 X123.570 Y159.655 E122.62957
G1 X117.978 Y162.463 E122.94175
G1 X116.793 Y163.062 E123.00800
G1 X104.524 Y169.958 E123.71016
G1 X101.161 Y173.567 E123.95627
G1 X83.337 Y179.601 E124.89509
G1 X68.170 Y159.823 E126.13855
G1 X75.892 Y148.262 E126.83216
G1 X79.246 Y143.360 E127.12849
G0 F9000 X79.500 Y143.696
G1 F1800 X83.880 Y142.219 E127.35910
G1 X100.494 Y132.674 E128.31503
G1 X108.856 Y128.390 E128.78378
G1 X117.162 Y124.702 E129.23718
G1 X125.452 Y121.658 E129.67777
G1 X133.552 Y119.391 E130.09741
G1 X137.926 Y118.485 E130.32026
G1 X142.120 Y117.843 E130.53193
G1 X146.319 Y117.439 E130.74239
G1 X150.527 Y117.288 E130.95246
G1 X154.732 Y117.411 E131.16234
G1 X158.910 Y117.817 E131.37177
G1 X163.038 Y118.517 E131.58065
G1 X167.093 Y119.508 E131.78891
G1 X171.056 Y120.787 E131.99667
G1 X174.899 Y122.343 E132.20351
G1 X178.602 Y124.154 E132.40917
G1 X182.161 Y126.204 E132.61408
G1 X185.577 Y128.477 E132.81878
G1 X189.024 Y131.094 E133.03470
G1 X194.901 Y136.399 E133.42969
G1 X200.483 Y142.577 E133.84509
G1 X205.320 Y149.013 E134.24676
G1 X205.691 Y149.535 E134.27871
G1 X211.639 Y158.761 E134.82636
G1 X202.055 Y176.459 E135.83047
G1 X185.364 Y176.551 E136.66320
